remix/Logos/tumblr-line.svg

<svg viewBox="0 0 24 24" fill="currentColor" xmlns="http://www.w3.org/2000/svg"><path d="M8.00098 8C9.07612 8 11.4983 7.32669 11.4983 3.5V2H12.9982V8H18.001V10H12.9982V12.9091C13.0013 15.3906 13.0013 16.596 13.001 17C12.9992 19.2084 14.6163 20.4 17.7861 20.4V22C17.1509 21.9992 16.4034 21.9992 15.5437 22C13.1417 22.0023 10.9982 19.9649 10.9982 17.4545V10H7.00098V8H8.00098Z"/></svg>

<svg viewBox="0 0 24 24" xmlns="http://www.w3.org/2000/svg"><path fill="none" d="M0 0h24v24H0Z"/><path d="M8 8c1.07 0 3.497-.673 3.497-4.5V2h1.5v6H18v2h-5.003v2.91c0 2.48 0 3.68 0 4.09 -.01 2.2 1.61 3.4 4.785 3.4V22h-2.25c-2.41 0-4.55-2.035-4.55-4.55V9.99H6.98v-2h1Z"/></svg>
